X:1
T:Gesammelte Motetten
T:Der Friede Gottes
T:Johann Heinrich Rolle
T:Der Friede Gottes
T:CPDL - Creative Commons Attribution Non Commercial 3.0
T:CPDL - Creative Commons Attribution Non Commercial 3.0
T:CPDL - Creative Commons Attribution Non Commercial 3.0
T:CPDL - Creative Commons Attribution Non Commercial 3.0
T:CPDL - Creative Commons Attribution Non Commercial 3.0
T:CPDL - Creative Commons Attribution Non Commercial 3.0
C:Johann Heinrich Rolle
Z:CPDL - Creative Commons Attribution Non Commercial 3.0
%%score [ 1 2 3 4 ]
L:1/8
M:4/4
K:F
V:1 treble nm="Sopran"
V:2 treble nm="Alt"
V:3 treble-8 nm="Tenor"
V:4 bass nm="Bass"
V:1
"^sotto voce" F8 | F4 F4 | F8- | F8 | %4
w: Der|Frie- de|Got-||
 F4 F2"^poco       a       poco       cres     -     cen     -     do" A2 | G4 G4 | G4 F2 F2 | %7
w: tes, wel- cher|hö- her|ist, wel- cher|
 B4 B4 | B4!f! A4 | d4 d2 d2 | (d2 c2)!p! c4 | c2 B2 B2 c2 | (B2 A2) A2 B2 | (A2 G2) G2!mf! e2 | %14
w: hö- her|ist denn|al- le Ver-|nunft, _ be-|wah- re eu- re|Her- * zen und|Sin- * ne in|
 f4 (A2 c2) | (B2 A2) G2 e2 | f4 A2 A2 |!>(! (A4 c2 A2)!>)! | !fermata!G4 z2"^Solo" c2 | %19
w: Chri- sto _|Je- * su zum|e- wi- gen|Le- * *|ben. Der|
 (c2 =B2) (c2 e2) | (e2 d2) c2 z2 | z4 G2 G2 | c4 G2 c2 | (c2 =B2) c2 e2 | (e2 d2) c2"^Tutti" e2 | %25
w: Frie- * de _|Got- * tes,|wel- cher|hö- her denn|al- * le Ver-|nunft _ ist, be-|
 e2 d2 d2 e2 | (d2 c2) c2 d2 | (c2 =B2) B2 |"^Solo" G2 | c4 c4 | c4 c2"^Tutti" ^c2 | %31
w: wah- re eu- re|Her- * zen und|Sin- * ne|in|Chri- sto|Je- su, in|
!<(! d4 d4!<)! | d4 d2!f! f2 | (e2 d2) c2 =B2 | (c8- | c4 =B4) | c2!f! d2 (d4- | d2 f2) e2 fd | %38
w: Chri- sto|Je- su zum|e- * wi- gen|Le-||ben, zum e-|* * wi- gen _|
 (c4 d4) | !fermata!c8 |"^Solo" z8 | z8 | z8 | z8 | z4 G4 |!<(! G4 G4!<)! | e8 |!>(! G4!>)! z4 | %48
w: Le- *|ben.|||||Der|Frie- de|Got-|tes,|
 z8 | z8 | z8 | z8 | z4 |"^Tutti"!f! f2 f2 | f2 e2 e2 d2 | (d2 c2)!>(! c2 d2 | d2 c2 c2 B2!>)! | %57
w: |||||der be-|wah- re eu- re|Her- * zen, be-|wah- re eu- re|
 (B2 A2) G2 B2 | (B2 A2) G2!mf! e2 | f4 (A2 c2) | (B2 A2) G2 c2 | f8 | =B8 | (c6 ed) | c8 | %65
w: Her- * zen und|Sin- * ne in|Chri- sto _|Je- * su, in|Chri-|sto|Je- * *|su,|
"^Solo" z8 | z8 | z4 z2"^Tutti"!mf! f2 | e2 d2 c2 B2 | B2 A2 c2 _e2 | (_e2 d2) d2 f2 | %71
w: ||be-|wah- re eu- re|Her- zen, eu- re|Her- * zen und|
 (f2 =e2) e2 c2 | f4 f4 | f4 f2 ^f2 | g4 g4 | (g2 e2) c2 d2 | (c2 B2) A2 G2 | (F4 f4- | f4 e4) | %79
w: Sin- * ne in|Chri- sto|Je- su, in|Chri- sto|Je- * su zum|e- * wi- gen|Le- *||
 f4 z4 | z2 d2 d4- | d2 f4 A2 | (A8 | G8) | F6 z2 ||[Q:1/4=132]"^Più moto" z8 | z8 | z8 | F4 f4 | %89
w: ben,|zum e-|* wi- gen|Le-||ben.||||A- men,|
 (e2 c2) (d2 e2) | f4 (c2 B2) | (A4 G4) | F4 z4 | _e8 | d4 !fermata!z4 | %95
w: a- * men, _|a- men, *|a- *|men,|a-|men,|
[Q:1/4=120]"^più lento" (F8 | E8) | F8 |] %98
w: a-||men.|
V:2
"^sotto voce" C8 | D4 _E4 | (_E4 D4- | D4 C2 B,2) | C4 C2 F2 | F4 E4 | A4 A2 A2 | A4 G4 | %8
w: ||||||||
 c4!f! c4 | c4 B2 B2 | B4!p! A4 | A2 G2 G2 A2 | (G2 F2) F2 G2 | (F2 E2) E2!mf! G2 | A4 (F2 A2) | %15
w: |||||||
 (G2 F2) E2 B2 | A4 F2 F2 |!>(! (F4 A2 F2)!>)! | !fermata!E4 z2 E2 | F4 G4 | A4 G2 z2 | G4 G4 | %22
w: ||||||wel- cher|
 c4 G2 E2 | F4 G2 G2 | A4 G2 G2 | A2 A2 E2 =B2 | (=B2 A2) A2 A2 | (A2 G2) G2 | z2 | z2 E2 F2 G2 | %30
w: hö- her denn|al- le Ver-|nunft ist, be-|wah- re eu- re|Her- * zen und|Sin- * ne||in Chri- sto|
 (G2 F2) F2 z2 | z2!<(! ^F2 G2 A2!<)! | (A2 G2) G2!f! A2 | (G2 F2) E2 D2 | (C2 A2 G2 F2 | E4 F4) | %36
w: Je- * su,|in Chri- sto|Je- * su zum|e- * wi- gen|Le- * * *||
 E2 z2 z2!f! A2 | G4 G2 A2 | (G4 =B4) | !fermata!c8 | z4 E4 | E4 E4 | E8- | E8 | E4 E4 | %45
w: ben, zum|e- wi- gen|Le- *|ben.|Der|Frie- de|Got-||tes, der|
!<(! E4 E4!<)! | G8 |!>(! E4!>)!!f! A2 A2 | d4 D4 | D4 ^C4 | F6 F2 | F4 E2 E2 | A4 | A2 A2 | %54
w: Frie- de|Got-|tes, wel- cher|hö- her,|hö- her|ist denn|al- le Ver-|nunft,||
 A2 G2 G2 F2 | (F2 E2)!>(! E2 B2 | B2 A2 A2 G2!>)! | (G2 F2) E2 G2 | (G2 F2) E2!mf! G2 | %59
w: |||||
 A4 (F2 A2) | (G2 F2) E2 c2 | =B8 | =B8 | G8 | G8 | z4!p! F4 | (F2 E2) (F2 A2) | %67
w: ||Chri-|sto|Je-|su.|Der|Frie- * de *|
 (A2 G2) F2!mf! A2 | A2 d2 c2 B2 | B2 A2 c2 c2 | (c2 B2) B2 d2 | (d2 c2) c2 z2 | z2 A2 B2 c2 | %73
w: Got- * tes *|||||in Chri- sto|
 (c2 B2) B2 z2 | z2 =B2 c2 d2 | (d2 c2) c2 _B2 | (A2 G2) F2 E2 | (F2 B2 A2 G2 | F4 G4) | %79
w: Je- * su,|in Chri- sto|Je- * su zum|e- * wi- gen|Le- * * *||
 F2 A2 G4- | G8- | G2 A4 F2 | (F8 | E8) | F6 z2 || z8 | z8 | C4 c4 | (A2 F2) (A2 =B2) | %89
w: ben, zum e-||* wi- gen|Le-||ben.|||A- men,|a- * men, _|
 (c2 E2) (F2 G2) | F6 G2 | (F4 E4) | F4 z4 | F8 | F4 !fermata!z4 | B,8- | B,8 | A,8 |] %98
w: a- * men, _|a- men,|a- *|men,|a-|men,|a-||men.|
V:3
"^sotto voce" A8 | A4 c4 | (c4 B4- | B4 A2 G2) | A4 A2 F2 | c4 c4 | c4 d2 d2 | d4 d4 | G4!f! F4 | %9
w: Der|Frie- de|Got- *||tes, wel- cher|hö- her|ist, wel- cher|hö- her|ist denn|
 f4 f2 f2 | g4!p! d4 | d2 d2 c2 c2 | c4 c2 d2 | c4 c2!mf! c2 | c4 c4 | c4 c2 c2 | d4 d2 d2 | %17
w: al- le Ver-|nunft, be-|wah- re eu- re|Her- zen und|Sin- ne in|Chri- sto|Je- su zum|e- wi- gen|
!>(! c8!>)! | !fermata!c4 z2 c2 | d4 e4 | f4 e2 e2 | d2 c2 =B2 A2 | (G2 F2) E2 c2 | d4 e2 e2 | %24
w: Le-|ben. Der|Frie- de|Got- tes be-|wah- re eu- re|Her- * zen, denn|al- le Ver-|
 f4 e2 c2 | c2 c2 =B2 e2 | e4 d2 d2 | d4 d2 | z2 | z2 G2 A2 B2 | (B2 A2) A2 z2 | %31
w: nunft ist, be-|wah- re eu- re|Her- zen und|Sin- ne||||
 z2!<(! A2 =B2 c2!<)! | (c2 =B2) B2 z2 | z4 z2!f! f2 | (e2 f2) e2 d2 | (c4 d4) | c2!f! c2 (c4 | %37
w: ||zum|e- * wi- gen|Le- *|ben, zum e-|
 =B2 d2) c2 c2 | (e4 f4) | !fermata!e8 | z4 c4 | c4 c4 | c8- | c8 | c4 c4 |!<(! c4 c4!<)! | ^c8 | %47
w: * * wi- gen|Le- *|ben.||||||||
!>(! ^c4!>)! z4 | z4!f! d2 f2 | e4 e4 | (e4 d2) d2 | g4 g2 g2 | (g2 f2) | c2 c2 | c4 c4- | %55
w: |wel- cher|hö- her|ist _ denn|al- le Ver-|nunft, _|der be-|wah- re|
 c4!>(! c2 c2 | c4 c4-!>)! | c4 c4 | c4 c2!mf! c2 | c4 c4 | c4 c2 e2 | d8 | f8 | (f6 e2) | e8 | %65
w: _ eu- re|Her- zen|_ und|Sin- ne in|Chri- sto|Je- su, in|Chri-|sto|Je- *|su.|
 z4 c4 | B4 c4 | d4 c2!mf! f2 | f2 f2 f2 e2 | e2 f2 f2 f2 | f4 f2 g2 | g4 g2 z2 | z2 c2 d2 _e2 | %73
w: Der|Frie- de|Got- tes be-|wah- re eu- re|Her- zen, eu- re|Her- zen und|Sin- ne||
 (_e2 d2) d2 z2 | z2 d2 e2 f2 | (f2 e2) e2 z2 | z4 z2 B2 | (A2 d2) c2 B2 | (A4 B4) | A2 f2 f4- | %80
w: |||zum|e- * wi- gen|Le- *|ben, zum e-|
 f8- | f2 d4 d2 | (c8 | B8) | A6 z2 || z8 | F4 f4 | (e2 c2) (d2 e2) | (f4 d4) | c4 z4 | c6 d2 | %91
w: |* wi- gen|Le-||ben.||A- men,|a- * men, _|a- *|men,|a- men,|
 (c4 B4) | A4 z4 | c8 | B4 !fermata!z4 | G8- | G8 | F8 |] %98
w: a- *|men,|a-|men,|a-||men.|
V:4
"^sotto voce" F,8 | D,4 A,,4 | (B,,8 | F,,8) | F,,4 z4 | z4 C,2 C,2 | F,4 D,4 | G,4 F,2 F,2 | %8
w: Der|Frie- de|Got-||tes,|wel- cher|hö- her|ist, wel- cher|
 E,4!f! F,4 | B,,2 F,2 B,2 B,B, | E,4!p! ^F,4 | G,2 G,2 E,2 E,2 | F,4 F,2 B,,2 | C,4 C,2!mf! C,2 | %14
w: hö- her|ist denn al- le Ver-|nuft, *||||
 F,4 F,4 | C4 C,2 C2 | =B,4 B,2 B,2 |!>(! C8!>)! | !fermata!C,4 z4 | z8 | z4 z2 C2 | %21
w: |||||||
 =B,2 A,2 G,2 F,2 | (E,2 D,2) C,2 z2 | z8 | z4 z2 C2 | ^F,2 F,2 ^G,2 G,2 | A,4 ^F,2 F,2 | G,4 G,2 | %28
w: |||||||
 F,2 | E,4 C,4 | F,4 F,2 E,2 |!<(! D,4 D,4!<)! | G,4 G,2 z2 | z4 z2!f! G,2 | A,2 F,4 F,2 | G,8 | %36
w: in|Chri- sto|Je- su, in|Chri- sto|Je- su||||
 A,4 z2!f! ^F,2 | G,4 C2 =F,2 | G,8 | !fermata!C,8 | z8 | z8 | z4 C4 | (^G,2 A,2) (A,2 E,2) | %44
w: * zum|e- wi- gen|Le-|ben.|||Der|Frie- * de _|
 (E,2 =G,2) G,2 C,2 |!<(! _B,4 B,4!<)! | A,8 |!>(! A,,4!>)!!f! A,2 G,2 | F,2 E,2 F,2 D,2 | %49
w: Got- * tes, der|Frie- de|Go-|tes, wel- cher|hö- her ist denn|
 A,2 A,4 A,,2 | D,2 A,2 D2 C2 | (B,2 G,2) C2 C,2 | (F,2 G,2) | A,2 F,2 | C4 C,4- | C,4!>(! C2 C2 | %56
w: al- le Ver-|nunft, denn al- le,|al- * le Ver-|nunft, _|_ _|||
 C4 C,4-!>)! | C,4 C,4 | F,4 C,2!mf! C,2 | F,4 F,4 | C4 C,2 C,2 | D,8 | D,8 | C,8 | C,8 | %65
w: |||||||||
 z4!p! A,4 | G,4 A,4 | B,4 A,2!mf! D2 | C2 B,2 A,2 G,2 | F,2 F,2 A,2 A,2 | B,4 B,2 =B,2 | %71
w: ||||||
 C4 C,2 B,2 | A,4 F,4 | B,4 B,2 A,2 | G,4 G,4 | C4 C,2 z2 | z4 z2 C,2 | D,2 B,,4 B,,2 | C,8 | %79
w: * * in|Chri- sto|Je- su, in|Chri- sto|Je- su|zum|e- wi- gen|Le-|
 F,4 z2 B,,2 | B,8 | =B,4 B,4 | (C8 | C,8) | F,6 z2 || C,4 C4 | (A,2 F,2 A,2 =B,2) | C4 z4 | z8 | %89
w: ben, zum|e-|wi- gen|Le-||ben.|A- men,|a- * * *|men,||
 C,4 C4 | (A,2 F,2) (A,2 _B,2) | (C4 C,4) | F,4 z4 | A,8 | B,4 !fermata!z4 | C,8- | C,8 | F,,8 |] %98
w: a- men,|a- * men, *|a- *|men,|a-|men,|a-||men.|

